X: 249
U:~=!turn!
M:C
L:1/8
K:D mixolydian
E | B,E E2 B,E {EF}GE | B,EEF GA B2 | B,E E2 B,E GE | DB,G,A, B,DD || z | GA Be dBBA | GA Be Be e2 |


